X: 224
T:Breton Number 1
M:4/4
L:1/8
S:Calico
D:Calico:Celanova Square, Breton Set (i)
Z: Richard Moon
K:D
A|ABcd eAce|fedc B2 AA|ABcd eAce|1fedc B3 A:||2fedc B3 B||!
c2 BA B2 e2|c/2B/2A dc BAAB|c2 BA B2 e2|1c/2B/2A dc A3 B:||2c/2B/2A dc A
4||

